X:278
T: SETZT EUCH BRUEDER IN DIE RUNDE
N: F0490
O: Europa, Mitteleuropa, Deutschland
R: Studenten -,  Burschenschafts - Lied
M: 4/4
L: 1/8
K: Eb
 | B,2E2B,3G, | B,A,F,G,F,E,E,2
B,2ECB,3G, | B,A,F,G,E,2z2
F,3B,B,=A,A,C | CB,B,DDCC2
F,3B,B,=A,A,C | CB,B,DDCC2
E2C2F3E | D2C2B,2
B,B, | E3B,E3B, | A,G,F,E,
CA,EC | B,3G,CB,A,G, | F,4
B,3A, | A,G,F,E,E2DC | CB,B,2
F,G,A,B, | CDEFG2F2 | E4z4

